picto/ramp-up-left-framed.svg

<svg class="color-immutable" width="30" height="30" viewBox="0 0 30 30" fill="none" xmlns="http://www.w3.org/2000/svg"><path d="M29.9999 0H0V29.9999H29.9999V0Z" fill="#2D327D"/><path d="M25.4999 2.99999C26.3249 2.99999 26.9999 3.67499 26.9999 4.49999V25.4999C26.9999 26.3249 26.3249 26.9999 25.4999 26.9999H4.49999C3.67499 26.9999 2.99999 26.3249 2.99999 25.4999V4.49999C2.99999 3.67499 3.67499 2.99999 4.49999 2.99999H25.4999ZM25.4999 2.62499H4.49999C3.46612 2.62499 2.62499 3.46612 2.62499 4.49999V25.4999C2.62499 26.5338 3.46612 27.3749 4.49999 27.3749H25.4999C26.5338 27.3749 27.3749 26.5338 27.3749 25.4999V4.49999C27.3749 3.46612 26.5338 2.62499 25.4999 2.62499Z" fill="white"/><path d="M20.7532 8.6267C21.4779 8.6267 22.0655 8.03848 22.0655 7.31413C22.0655 6.58963 21.4779 6.00156 20.7532 6.00156C20.0284 6.00156 19.4409 6.58963 19.4409 7.31413C19.4409 8.03855 20.0284 8.6267 20.7532 8.6267Z" fill="white"/><path d="M6.00011 23.9999H20.3254V23.3372L6.00011 21.0001V23.9999Z" fill="white"/><path d="M22.0504 19.2101V11.5126L22.8748 12.5624V15.3749C22.8748 15.644 23.0935 15.8625 23.3625 15.8625C23.6317 15.8625 23.8501 15.644 23.8501 15.3749V12.1812C23.8501 12.013 23.794 11.85 23.6899 11.718L22.1044 9.70033C21.8199 9.3383 21.3851 9.12711 20.9254 9.12711C20.0973 9.12711 19.425 9.79888 19.425 10.627V15.6731L17.8827 17.216C17.7418 17.3565 17.6628 17.5471 17.6628 17.7462V21.6561C17.6628 22.0391 17.9734 22.3497 18.3563 22.3497C18.7393 22.3497 19.0498 22.0391 19.0498 21.6561V18.2223L20.55 16.7225V19.2243C20.55 19.3723 20.5937 19.5173 20.6764 19.6404L23.0519 23.316C23.1796 23.5136 23.3986 23.6333 23.6346 23.6333C24.0172 23.6333 24.3281 23.3227 24.3281 22.9393C24.3281 22.8059 24.2891 22.6751 24.217 22.5628L22.0504 19.2101Z" fill="white"/><path d="M17.7187 14.5447C17.7776 14.5447 17.8361 14.5347 17.8907 14.5145L18.7877 14.19V13.1132L17.5466 13.5627C17.3464 13.635 17.2124 13.8255 17.2124 14.0384C17.2123 14.3178 17.4392 14.5447 17.7187 14.5447Z" fill="white"/></svg>

<svg class="color-immutable" width="30" height="30" viewBox="0 0 30 30" fill="none" xmlns="http://www.w3.org/2000/svg"><path d="M30 0H0v30h30V0Z" fill="#2D327D"/><path d="M25.5 3c.825 0 1.5.675 1.5 1.5v21c0 .825-.675 1.5-1.5 1.5h-21c-.825 0-1.5-.675-1.5-1.5v-21C3 3.675 3.675 3 4.5 3h21Zm0-.375h-21A1.877 1.877 0 0 0 2.625 4.5v21c0 1.034.841 1.875 1.875 1.875h21a1.877 1.877 0 0 0 1.875-1.875v-21A1.877 1.877 0 0 0 25.5 2.625Z" fill="#fff"/><path d="M20.753 8.627a1.313 1.313 0 1 0 0-2.626 1.313 1.313 0 0 0 0 2.626ZM6 24h14.325v-.663L6 21v3ZM22.05 19.21v-7.697l.825 1.05v2.812a.488.488 0 0 0 .975 0V12.18a.747.747 0 0 0-.16-.463L22.104 9.7a1.5 1.5 0 0 0-2.679.927v5.046l-1.542 1.543a.748.748 0 0 0-.22.53v3.91a.694.694 0 0 0 1.387 0v-3.434l1.5-1.5v2.502c0 .148.044.293.126.416l2.376 3.676a.693.693 0 1 0 1.165-.753L22.05 19.21Z" fill="#fff"/><path d="M17.719 14.545c.059 0 .117-.01.172-.03l.897-.325v-1.077l-1.241.45a.506.506 0 0 0 .172.982Z" fill="#fff"/></svg>
